!!!COM: Palestrina, Giovanni Perluigi da
!!!OPR: Missa Veni creator Spiritus
!!!OTL: Agnus II
**kern	**kern	**kern	**kern	**kern	**kern	**kern
*Ibass	*Ibass	*Itenor	*Itenor	*Icalto	*Icant	*Icant
!Bassus 2	!Bassus 1	!Tenor 2	!Tenor 1	!Altus	!Cantus 2	!Cantus 1
*clefF4	*clefF4	*clefGv2	*clefGv2	*clefG2	*clefG2	*clefG2
*k[]	*k[]	*k[]	*k[]	*k[]	*k[]	*k[]
*G:mix	*G:mix	*G:mix	*G:mix	*G:mix	*G:mix	*G:mix
*M4/2	*M4/2	*M4/2	*M4/2	*M4/2	*M4/2	*M4/2
=1	=1	=1	=1	=1	=1	=1
0r	0r	1.d	1r	0r	0r	0r
.	.	.	[1d	.	.	.
.	.	2G	.	.	.	.
=2	=2	=2	=2	=2	=2	=2
0r	1r	2.B	2d]	0r	1.dd	1r
.	.	.	2G	.	.	.
.	.	4c	.	.	.	.
.	[1G	1d	2.B	.	.	[1g
.	.	.	.	.	2g	.
.	.	.	4c	.	.	.
=3	=3	=3	=3	=3	=3	=3
0r	2G]	1.G	2d	0r	2b	0g]
.	2C	.	2e	.	2.cc	.
.	1G	.	1d	.	.	.
.	.	.	.	.	4b	.
.	.	2B	.	.	2b	.
=4	=4	=4	=4	=4	=4	=4
0r	2F	2A	1f	0r	2cc	[0a
.	2D	1d	.	.	2dd	.
.	1A	.	1e	.	1ee	.
.	.	2c#	.	.	.	.
=5	=5	=5	=5	=5	=5	=5
0r	1D	0d	2d	2r	1ff#	1a]
.	.	.	2A	1d	.	.
.	[1G	.	2.B	.	[1gg	[1g
.	.	.	.	2G	.	.
.	.	.	4c	.	.	.
=6	=6	=6	=6	=6	=6	=6
0r	2G]	2r	2d	2B	0gg]	0g]
.	2C	1c	2e	2c	.	.
.	1G	.	2d	1d	.	.
.	.	2B	2G	.	.	.
=7	=7	=7	=7	=7	=7	=7
0r	0D	2.d	2r	1a	1r	[0f#
.	.	.	1d	.	.	.
.	.	8c	.	.	.	.
.	.	8B	.	.	.	.
.	.	1A	.	2d	[1dd	.
.	.	.	2A	[2a	.	.
=8	=8	=8	=8	=8	=8	=8
1r	2r	1D	1d	4a]	2dd]	1f#]
.	.	.	.	4g	.	.
.	1d	.	.	2a	2a	.
[1G	.	1d	2.G	1b	2.dd	[1g
.	2G	.	.	.	.	.
.	.	.	4A	.	4cc	.
=9	=9	=9	=9	=9	=9	=9
2G]	2d	1.G	2B	2r	2b	0g]
2C	2.c	.	2c	2e	2ee	.
1G	.	.	1d	2g	1dd	.
.	4B	.	.	.	.	.
.	2B	2B	.	2d	.	.
=10	=10	=10	=10	=10	=10	=10
2F	0A	2c	1r	1f	2r	[0a
2D	.	1d	.	.	2dd	.
1A	.	.	2r	1e	1ee	.
.	.	2c#	[2a	.	.	.
=11	=11	=11	=11	=11	=11	=11
1D	2r	0d	2a]	2.d	1ff#	1a]
.	1d	.	2A	.	.	.
.	.	.	.	4c	.	.
[1G	.	.	2B	1B	2gg	[1g
.	2G	.	[2d	.	2g	.
=12	=12	=12	=12	=12	=12	=12
2G]	2d	0r	4d]	2G	2b	0g]
.	.	.	4B	.	.	.
2C	2.c	.	2e	1g	2cc	.
1G	.	.	1d	.	1dd	.
.	4B	.	.	.	.	.
.	2B	.	.	2d	.	.
=13	=13	=13	=13	=13	=13	=13
2r	2.A	2r	2.c	2.a	1.ee	[0cc
1c	.	2a	.	.	.	.
.	4B	.	4d	8g	.	.
.	.	.	.	8f	.	.
.	1c	2g	2e	2e	.	.
2F	.	2f	2f	2a	2cc	.
=14	=14	=14	=14	=14	=14	=14
1c	1C	1e	0g	2g	2.ee	1cc]
.	.	.	.	1cc	.	.
.	.	.	.	.	4ff	.
1G	2r	2d	.	.	2gg	[1dd
.	2G	[2g	.	2b	2g	.
=15	=15	=15	=15	=15	=15	=15
0r	1D	2g]	2r	1a	1a	0dd]
.	.	2f#	1d	.	.	.
.	1G	1g	.	2r	1b	.
.	.	.	2G	[2g	.	.
=16	=16	=16	=16	=16	=16	=16
2r	1C	1e	1.g	2g]	2cc	[0cc
1c	.	.	.	2c	1ee	.
.	2r	1c	.	2e	.	.
2F	[2c	.	2a	2f	2a	.
=17	=17	=17	=17	=17	=17	=17
1c	2c]	2e	2g	2g	2ee	1cc]
.	2F	2f	1f	2a	2cc	.
1C	1c	2g	.	1g	1cc	1r
.	.	[2c	2e	.	.	.
=18	=18	=18	=18	=18	=18	=18
2r	0F	4c]	1f	2r	2.a	0r
.	.	4B	.	.	.	.
2F	.	4A	.	2a	.	.
.	.	4G	.	.	4b	.
1F	.	2.A	1r	1a	1cc	.
.	.	4B	.	.	.	.
=19	=19	=19	=19	=19	=19	=19
2E	0r	2c	2r	2g	0r	[0cc
2.F	.	2A	2f	2.a	.	.
.	.	1A	1f	.	.	.
4G	.	.	.	4b	.	.
4A	.	.	.	2cc	.	.
4B	.	.	.	.	.	.
=20	=20	=20	=20	=20	=20	=20
2c	0r	2r	0e	1g	2r	1cc]
2C	.	2c	.	.	2ee	.
4C	.	1c	.	2e	1ee	[1g
4D	.	.	.	.	.	.
4E	.	.	.	[2g	.	.
4F	.	.	.	.	.	.
=21	=21	=21	=21	=21	=21	=21
2G	0r	2B	0r	4g]	2dd	0g]
.	.	.	.	4f	.	.
2C	.	2.c	.	2e	2.ee	.
1C	.	.	.	1c	.	.
.	.	4d	.	.	4ff	.
.	.	2e	.	.	2gg	.
=22	=22	=22	=22	=22	=22	=22
0r	0r	2d	2r	0r	2ff	[0a
.	.	2c	2e	.	2ee	.
.	.	1d	[1f	.	1dd	.
=23	=23	=23	=23	=23	=23	=23
0r	1F	0A	1f]	2r	2cc	1a]
.	.	.	.	2a	4f	.
.	.	.	.	.	4g	.
.	1F	.	[1c	1a	4a	[1cc
.	.	.	.	.	4b	.
.	.	.	.	.	4cc	.
.	.	.	.	.	4dd	.
=24	=24	=24	=24	=24	=24	=24
0r	2E	2r	2c]	2g	4ee	0cc]
.	.	.	.	.	4dd	.
.	2.F	2f	2A	2.a	4cc	.
.	.	.	.	.	4b	.
.	.	2f	1a	.	1a	.
.	4G	.	.	4b	.	.
.	2A	2e	.	2cc	.	.
=25	=25	=25	=25	=25	=25	=25
0r	2G	2g	0d	2b	0r	[0dd
.	2F	1a	.	2a	.	.
.	1G	.	.	1b	.	.
.	.	2g	.	.	.	.
=26	=26	=26	=26	=26	=26	=26
2r	2.D	4f	1d	1a	2r	1dd]
.	.	4d	.	.	.	.
2F	.	2.f	.	.	2a	.
.	4E	.	.	.	.	.
1F	4F	.	1A	1r	1a	[1cc
.	4G	4e	.	.	.	.
.	4A	4c	.	.	.	.
.	4B	4d	.	.	.	.
=27	=27	=27	=27	=27	=27	=27
2E	1c	2e	2r	2r	2g	0cc]
2.F	.	2A	2c	2f	2.a	.
.	1r	1c	2A	2f	.	.
4G	.	.	.	.	4b	.
2A	.	.	2A	2e	2cc	.
=28	=28	=28	=28	=28	=28	=28
2G	0r	0r	2B	2g	2b	[0dd
2F	.	.	1d	1a	2a	.
1G	.	.	.	.	1b	.
.	.	.	2G	[2g	.	.
=29	=29	=29	=29	=29	=29	=29
1D	1r	1r	1A	2g]	1a	1dd]
.	.	.	.	2f#	.	.
1C	2r	2r	1c	1g	1r	[1ee
.	2c	2e	.	.	.	.
=30	=30	=30	=30	=30	=30	=30
2r	1c	1e	2r	2.g	1cc	0ee]
2c	.	.	2e	.	.	.
.	.	.	.	4f	.	.
1c	1C	1g	1e	2e	1cc	.
.	.	.	.	2c	.	.
=31	=31	=31	=31	=31	=31	=31
1G	2r	2r	2g	1d	2b	[0dd
.	2G	2d	2G	.	2b	.
1r	2F#	1d	2A	2r	2a	.
.	2G	.	2B	[2g	2g	.
=32	=32	=32	=32	=32	=32	=32
1r	1D	2d	2.A	4g]	1a	1dd]
.	.	.	.	4f	.	.
.	.	2d	.	2f	.	.
.	.	.	4B	.	.	.
2r	1A	2c	4c	1e	2a	1r
.	.	.	4d	.	.	.
2A	.	2A	[2e	.	2cc	.
=33	=33	=33	=33	=33	=33	=33
2G#	0r	2B	4e]	1e	2b	0r
.	.	.	4d	.	.	.
2A	.	2.e	2c	.	1a	.
1E	.	.	1B	1e	.	.
.	.	4d	.	.	.	.
.	.	2B	.	.	2g#	.
=34	=34	=34	=34	=34	=34	=34
2A	1r	2c	0A	2e	1a	[0cc
2F	.	2f	.	2a	.	.
1F	2r	1f	.	1a	2r	.
.	2c	.	.	.	2a	.
=35	=35	=35	=35	=35	=35	=35
1C	1c	2.e	2r	0g	1cc	1cc]
.	.	.	2e	.	.	.
.	.	8d	.	.	.	.
.	.	8c	.	.	.	.
2r	1G	2g	1d	.	2b	[1dd
2G	.	2G	.	.	2b	.
=36	=36	=36	=36	=36	=36	=36
2F#	0r	2A	1.d	2r	2a	0dd]
2G	.	2B	.	2.g	2g	.
1D	.	2.A	.	.	1a	.
.	.	.	.	4f	.	.
.	.	.	2d	2f	.	.
.	.	4B	.	.	.	.
=37	=37	=37	=37	=37	=37	=37
1A	2r	4c	2c	1e	2a	[0ee
.	.	4d	.	.	.	.
.	2A	2.e	2A	.	2cc	.
1r	2G#	.	2B	1e	2b	.
.	.	4d	.	.	.	.
.	2A	2c	[2e	.	[2a	.
=38	=38	=38	=38	=38	=38	=38
1r	1E	1B	4e]	1e	2a]	1ee]
.	.	.	4d	.	.	.
.	.	.	2B	.	2g#	.
2r	1A	2A	2c	2e	1a	[1cc
[2F	.	[2a	4A	[2f	.	.
.	.	.	4B	.	.	.
=39	=39	=39	=39	=39	=39	=39
2F]	0r	2a]	4c	2f]	0r	0cc]
.	.	.	4d	.	.	.
2E	.	2g	2e	2g	.	.
2F	.	2f	1c	2a	.	.
2C	.	2e	.	[2g	.	.
=40	=40	=40	=40	=40	=40	=40
[0G	0r	2d	0r	4g]	0r	[0b
.	.	.	.	4f	.	.
.	.	2.g	.	2e	.	.
.	.	.	.	2d	.	.
.	.	4f	.	.	.	.
.	.	4e	.	[2g	.	.
.	.	4d	.	.	.	.
=41	=41	=41	=41	=41	=41	=41
1G]	0r	4e	1r	2g]	0r	1b]
.	.	4d	.	.	.	.
.	.	1d	.	2f	.	.
1A	.	.	2r	1e	.	[1a
.	.	2c#	2e	.	.	.
=42	=42	=42	=42	=42	=42	=42
1D	2r	1d	1f	1d	2r	0a]
.	2d	.	.	.	2dd	.
1r	2c#	1r	2e	2r	2ee	.
.	2d	.	[2d	2a	2ff	.
=43	=43	=43	=43	=43	=43	=43
2r	1G	0r	4d]	2b-	1gg	[0dd
.	.	.	4c	.	.	.
2G	.	.	2B-	2g	.	.
2F#	2r	.	2A	2a	2r	.
2G	2d	.	2G	2b-	2dd	.
=44	=44	=44	=44	=44	=44	=44
1D	2d	2r	4d	1a	2ff	1dd]
.	.	.	4e	.	.	.
.	2d	2a	4f	.	2ff	.
.	.	.	4d	.	.	.
1r	2A	2a	2e	1r	2ee	[1cc
.	[2c	2a	4A	.	[2ee	.
.	.	.	4B	.	.	.
=45	=45	=45	=45	=45	=45	=45
0r	4c]	2e	4c	0r	4ee]	0cc]
.	4B	.	4d	.	4dd	.
.	4A	2.g	1e	.	4cc	.
.	4G	.	.	.	4b	.
.	1A	.	.	.	2cc	.
.	.	8f#	.	.	.	.
.	.	8e	.	.	.	.
.	.	2f#	2c	.	2a	.
=46	=46	=46	=46	=46	=46	=46
1r	0G	1g	2r	2r	0dd	[0b
.	.	.	1d	2g	.	.
2r	.	2.G	.	2g	.	.
2G	.	.	2d	2g	.	.
.	.	4A	.	.	.	.
=47	=47	=47	=47	=47	=47	=47
2G	0r	4B	2g	2d	2r	1b]
.	.	4c	.	.	.	.
2G	.	2d	2d	2.g	2gg	.
2C	.	1c	[1e	.	2gg	[1cc
.	.	.	.	4f	.	.
[2c	.	.	.	4e	2gg	.
.	.	.	.	4d	.	.
=48	=48	=48	=48	=48	=48	=48
4c]	0r	2r	1e]	4e	2cc	0cc]
4B	.	.	.	4f	.	.
4A	.	1c	.	1g	1ee	.
4G	.	.	.	.	.	.
1A	.	.	1c	.	.	.
.	.	2A	.	2f#	4dd	.
.	.	.	.	.	4cc	.
=49	=49	=49	=49	=49	=49	=49
0G	2r	1B	2r	0g	2ee	0b
.	2G	.	2d	.	2dd	.
.	2G	2G	2d	.	1gg	.
.	2G	2g	2d	.	.	.
=50	=50	=50	=50	=50	=50	=50
2r	0C	2g	0e	2r	2r	0cc
2c	.	2g	.	2g	2ee	.
2c	.	1c	.	2g	2ee	.
2c	.	.	.	2g	2ee	.
=51	=51	=51	=51	=51	=51	=51
0F	2r	2r	2r	1cc	0ff	0a
.	2F	2c	2A	.	.	.
.	2F	2c	2A	2r	.	.
.	2F	2c	2A	2cc	.	.
=52	=52	=52	=52	=52	=52	=52
2r	1C	0e	4c	2cc	2r	0g
.	.	.	4d	.	.	.
2c	.	.	4e	2cc	2ee	.
.	.	.	4f	.	.	.
2c	1C	.	2g	1cc	2ee	.
2c	.	.	2e	.	2ee	.
=53	=53	=53	=53	=53	=53	=53
4F	1D	2.d	1A	1a	2ff	0f
4G	.	.	.	.	.	.
4A	.	.	.	.	2.ff	.
8G	.	4c	.	.	.	.
8A	.	.	.	.	.	.
1B-	1r	4d	1r	1d	.	.
.	.	4e	.	.	4ee	.
.	.	4f	.	.	[2dd	.
.	.	4d	.	.	.	.
=54	=54	=54	=54	=54	=54	=54
1A	1r	1e	2r	2r	2dd]	0a
.	.	.	2e	1a	2cc#	.
1D	1d	1d	2f	.	1dd	.
.	.	.	[2a	2f	.	.
=55	=55	=55	=55	=55	=55	=55
1r	1A	1c	2a]	1a	1.ee	0cc
.	.	.	2.A	.	.	.
1A	1c	[1e	.	2a	.	.
.	.	.	4B	.	.	.
.	.	.	4c	[2e	2ee	.
.	.	.	4d	.	.	.
=56	=56	=56	=56	=56	=56	=56
1E	0G	1e]	2e	4e]	1.gg	0b
.	.	.	.	4f	.	.
.	.	.	2.B	2.g	.	.
1G	.	2d	.	.	.	.
.	.	.	4A	4d	.	.
.	.	2G	4B	[2g	2dd	.
.	.	.	4c	.	.	.
=57	=57	=57	=57	=57	=57	=57
1D	0r	1A	2.d	2g]	0dd	0a
.	.	.	.	4f#	.	.
.	.	.	8c	4e	.	.
.	.	.	8B	.	.	.
1D	.	[1d	1A	1f#	.	.
=58	=58	=58	=58	=58	=58	=58
0G	2r	2d]	2B	[0g	2b	[0g
.	1C	1c	1e	.	1cc	.
.	2G	2B	2d	.	2dd	.
=59	=59	=59	=59	=59	=59	=59
0r	2C	2c	2c	1g_	2ee	1g_
.	2G	2d	2B	.	2dd	.
.	1C	1e	1c	1g_	1cc	1g_
=60	=60	=60	=60	=60	=60	=60
2r	[0G	2d	2d	0g]	2b	0g]
1C	.	1e	1c	.	1cc	.
2G	.	2d	2d	.	2b	.
=61	=61	=61	=61	=61	=61	=61
2C	1G_	2c	2e	[0g	2cc	[0g
2G	.	2B	2d	.	2dd	.
1C	1G_	1c	1c	.	1ee	.
=62	=62	=62	=62	=62	=62	=62
0GG	0G]	0d	0B	0g]	0dd	0g]
==	==	==	==	==	==	==
*-	*-	*-	*-	*-	*-	*-
!!!CDT: 1525/^1526/-1594/2/2
!!!OCY: Italia
!!!AGN: Mass (Tenor)
!!!AST: renaissance, vocal
!!!ASW: Hymn
!!!PWK: Masses, Book 9
!!!RNB: Cadence finals: C,D
!!!YOR: Le Opere Complete, v. 25, p. 246
!!!YOO: Rome, Italy: Fratelli Scalera
!!!END: 1992//
!!!EED: John Miller
!!!YEC: Copyright 2000, John Miller
!!!YEN: United States of America
!!!YEM: Rights to all derivative electronic formats reserved.
!!!YEM: Refer to licensing agreement for further details.
!!!YEM: This file must be accompanied by the licensing agreement.
!!!YEM: A copy of the licensing agreement may be found at http://www.music-cog.ohio-state.edu/HumdrumDatabases/Palestrina/license.txt
!!!EMD: converted to Humdrum by Bret Aarden
